icons/cloud-off.svg

<svg width="24" height="24" viewBox="0 0 24 24" fill="none" xmlns="http://www.w3.org/2000/svg">
<g clip-path="url(#clip0)">
<path fill-rule="evenodd" clip-rule="evenodd" d="M0.292893 0.292893C0.683417 -0.0976311 1.31658 -0.0976311 1.70711 0.292893L23.7071 22.2929C24.0976 22.6834 24.0976 23.3166 23.7071 23.7071C23.3166 24.0976 22.6834 24.0976 22.2929 23.7071L19.8384 21.2526C18.9954 21.728 18.0286 22 17 22H7C3.63321 22 1 19.1274 1 15.7059C1 12.9922 2.64878 10.634 5.01086 9.76562C5.00365 9.62894 5 9.49135 5 9.35294C5 8.47067 5.14827 7.62238 5.4212 6.83541L0.292893 1.70711C-0.0976311 1.31658 -0.0976311 0.683417 0.292893 0.292893ZM7.06602 8.48024C7.02262 8.76384 7 9.05532 7 9.35294C7 9.37258 7.0001 9.39219 7.00029 9.41177C7.55244 9.41193 8 9.85958 8 10.4118C8 10.9641 7.55228 11.4118 7 11.4118C6.7558 11.4118 6.51754 11.4351 6.28676 11.4797C4.45676 11.8331 3 13.5564 3 15.7059C3 18.1321 4.84394 20 7 20H17C17.4689 20 17.9197 19.9136 18.3393 19.7535L7.06602 8.48024ZM12 4C11.0679 4 10.1952 4.27234 9.44553 4.75067C8.97994 5.04773 8.36169 4.91112 8.06463 4.44553C7.76756 3.97994 7.90418 3.36169 8.36977 3.06463C9.42621 2.39057 10.6697 2 12 2C15.9191 2 19 5.34665 19 9.35294C19 9.49135 18.9963 9.62894 18.9891 9.76562C21.3512 10.634 23 12.9922 23 15.7059C23 16.1788 22.9501 16.6407 22.8552 17.0858C22.74 17.6259 22.2087 17.9704 21.6686 17.8552C21.1285 17.74 20.784 17.2087 20.8992 16.6686C20.965 16.3601 21 16.038 21 15.7059C21 13.5564 19.5432 11.8331 17.7132 11.4797C17.4825 11.4351 17.2442 11.4118 17 11.4118C16.6202 11.4118 16.2542 11.4683 15.9079 11.5736C15.3795 11.7344 14.8209 11.4363 14.6602 10.9079C14.4995 10.3795 14.7975 9.82089 15.3259 9.66019C15.858 9.49836 16.42 9.41179 16.9997 9.41177C16.9999 9.39219 17 9.37258 17 9.35294C17 6.34197 14.7083 4 12 4Z" fill="black"/>
</g>
<defs>
<clipPath id="clip0">
<rect width="24" height="24" fill="white"/>
</clipPath>
</defs>
</svg>

<svg
  width="24"
  height="24"
  viewBox="0 0 24 24"
  xmlns="http://www.w3.org/2000/svg"
>
  <g clip-path="url(#a)">
    <path
      fill-rule="evenodd"
      clip-rule="evenodd"
      d="M.293.293a1 1 0 0 1 1.414 0l22 22a1 1 0 0 1-1.414 1.414l-2.455-2.454A5.758 5.758 0 0 1 17 22H7c-3.367 0-6-2.873-6-6.294 0-2.714 1.649-5.072 4.01-5.94a7.674 7.674 0 0 1 .41-2.93L.294 1.706a1 1 0 0 1 0-1.414zM7.066 8.48A5.767 5.767 0 0 0 7 9.412a1 1 0 0 1 0 2c-.244 0-.482.023-.713.068C4.457 11.833 3 13.556 3 15.706 3 18.132 4.844 20 7 20h10c.469 0 .92-.086 1.34-.247L7.065 8.48zM12 4c-.932 0-1.805.272-2.554.75A1 1 0 1 1 8.37 3.066 6.725 6.725 0 0 1 12 2c3.92 0 7 3.347 7 7.353 0 .138-.004.276-.01.413 2.361.868 4.01 3.226 4.01 5.94 0 .473-.05.935-.145 1.38a1 1 0 0 1-1.956-.417c.066-.309.101-.631.101-.963 0-2.15-1.457-3.873-3.287-4.226a3.754 3.754 0 0 0-1.805.094 1 1 0 1 1-.582-1.914A5.744 5.744 0 0 1 17 9.412v-.06C17 6.343 14.708 4 12 4z"
    />
  </g>
  <defs>
    <clipPath id="a">
      <rect width="24" height="24" />
    </clipPath>
  </defs>
</svg>
